packages/core/src/svgs/wallets/branded/squads.svg

<svg width="24" height="24" viewBox="0 0 24 24" fill="none" xmlns="http://www.w3.org/2000/svg">
<path d="M21.4944 7.35653L18.7856 4.64762L16.6481 2.50675C16.6076 2.46625 16.5649 2.42796 16.5212 2.39184C16.2123 2.13924 15.8257 2.00084 15.4267 2H8.57436C8.17531 2.00066 7.78872 2.13908 7.47991 2.39184C7.43613 2.42796 7.39345 2.46625 7.35295 2.50675L5.21659 4.64323L2.50783 7.35215C2.34696 7.51276 2.2193 7.7035 2.13217 7.91346C2.04504 8.12342 2.00013 8.34851 2 8.57583V15.4286C1.99995 15.6559 2.04477 15.881 2.13192 16.091C2.21906 16.301 2.34681 16.4917 2.50783 16.6522L7.35295 21.4987C7.39345 21.5392 7.43613 21.5775 7.47991 21.6082C7.78872 21.8609 8.17531 21.9993 8.57436 22H15.4267C15.8257 21.9992 16.2123 21.8608 16.5212 21.6082C16.5649 21.572 16.6076 21.5337 16.6481 21.4987L21.4933 16.6522C21.6539 16.4915 21.7814 16.3007 21.8683 16.0908C21.9553 15.8808 22 15.6558 22 15.4286V8.57583C21.9987 8.11865 21.817 7.68045 21.4944 7.35653ZM19.358 12.0104V17.7555C19.3576 17.9671 19.3154 18.1766 19.234 18.3719C19.1525 18.5672 19.0334 18.7445 18.8834 18.8937C18.7333 19.043 18.5553 19.1612 18.3596 19.2415C18.1639 19.3219 17.9542 19.3629 17.7426 19.3622H6.25084C6.03938 19.3624 5.82997 19.3208 5.63457 19.2399C5.43918 19.1591 5.26166 19.0405 5.11213 18.891C4.96261 18.7414 4.84402 18.5639 4.76317 18.3685C4.68231 18.1731 4.64077 17.9637 4.64091 17.7522V6.25983C4.64077 6.04831 4.6823 5.83883 4.76314 5.64336C4.84398 5.4479 4.96255 5.27026 5.11207 5.12064C5.26158 4.97102 5.4391 4.85237 5.63449 4.77139C5.82989 4.69041 6.03933 4.64868 6.25084 4.64868H17.7426C18.1699 4.64868 18.5796 4.81844 18.8817 5.12059C19.1839 5.42273 19.3536 5.83253 19.3536 6.25983V12.0115L19.358 12.0104Z" fill="black"/>
</svg>

<svg xmlns="http://www.w3.org/2000/svg" width="24" height="24" fill="none" viewBox="0 0 24 24">
    <path fill="#000" d="m21.494 7.357-2.708-2.71-2.138-2.14A1.74 1.74 0 0 0 15.427 2H8.574a1.73 1.73 0 0 0-1.221.507L5.217 4.643l-2.71 2.71A1.73 1.73 0 0 0 2 8.575v6.853a1.73 1.73 0 0 0 .508 1.223L7.353 21.5q.06.062.127.11c.309.252.695.39 1.094.391h6.853c.399 0 .785-.14 1.094-.392q.066-.055.127-.11l4.845-4.846A1.73 1.73 0 0 0 22 15.43V8.576a1.74 1.74 0 0 0-.506-1.22m-2.136 4.653v5.746a1.61 1.61 0 0 1-1.615 1.606H6.25a1.607 1.607 0 0 1-1.61-1.61V6.26a1.61 1.61 0 0 1 1.61-1.611h11.492a1.61 1.61 0 0 1 1.61 1.61v5.752z"/>
</svg>
